X: 914
T: Off She Goes!
B:O'Neill's 914
Z:Transcribed by Tom Keays (htkeays@mailbox.syr.edu)
Z:abc 1.6
M:6/8
R:Jig
L:1/8
K:D
| F2A G2B | ABc d3 | F2A G2B | AFD E2D  |
F2A G2B | ABc d2e | f2d g2f | edc d2 :|
|| e | faf def | gbg efg | faf def | ecA A2g  |
faf def | gbg efg | f2d g2f | edc d2 :|


